X: 1
T: Waltham Abbey   [F]
T: Walton Abey
C: J.Playford 1713
R: reel
Z: 2006 John Chambers <jc:trillian.mit.edu>
B: Barnes II p.139
M: C|
L: 1/8
%Q: 1/2=104
K: F
|: "F"f2g2 a2ga | "Bb"bagf "C"e2c2 | "Bb"d2B2 "C7"G2c2 | "F"A2F2 "C7"c4 |
|  "F"f2g2 a2ga | "Bb"bagf "C"e2c2 | "Bb"d2B2 "C7"G2c2 |1 "F"A2 F6 :|2 "F"A2F2- "G7"F4 ||
|: "C"G2E2 GEGE | c2G2 "F"A2F2 | "Bb"d2B2 dBdB | "Gm"g2d2 "C7"e2c2 |
| "F"a2gf "C/E"g2fe | "Dm"defg "C(Am)"e2c2 | "Bb"dcBA "C7"G2c2 | "F"A2 F6 :|

%%sep 1 1 500
